!!!OTL: Eitelkeit aller Eitelkeiten.
!!!OTL-incipit:ICH HAB MEIN SACH AUF NICHTS GESTELLT
!!!COM: F. Schneider
!!!ARE: Europa, Mitteleuropa, Deutschland
!!!SCT: F0045
!!!TXL: @@DE
!!!YEM: Copyright 1995, estate of Helmut Schaffrath.
**kern	**text
*ICvox	*
*clefG2	*
*M4/4	*
*met(c)	*
*k[f#c#]	*
*D:	*
!LO:TX:a:t=P:only higher voice encoded:problem	!
!LO:TX:a:t=Lebhaft. Strophe 1, 6 und 7.	!
!LO:TX:a:t=Solo ʒu Ʒweien.	!
{4a	1._Jch
=1	=1
4dd	hab'
4cc#	mein
4dd	Sach'
4ee	auf
=2	=2
4.ff#	nichts
8ee	geſtllt,
4dd/	.
!LO:TX:a:t=Alle.	!
4ff#/	Juch-
=3	=3
2ee/	-he!
4r}	.
!LO:TX:a:t=Ʒwei.	!
{4a	Drum
=4	=4
4ee/	iſt
4dd/	ſo
4ee/	wohl
4ff#/	mir
=5	=5
4.gg	in
8ff#	der
4ee	Welt,
!LO:TX:a:t=Alle.	!
4ee	Juch-
=6	=6
2ff#	-he!
4r}	.
!LO:TX:a:t=Ʒwei.	!
{4ff#	und
=7	=7
4.ff#/	wer_will
8ff#/	mein
4ff#/	Kame-
4ee/	.
=8	=8
4dd/	-ra-
4cc#/	-de
4dd/}	ſein,
{4b/	der
=9	=9
4.ee/	ſto-_-ße
8ee/	mit
4ee/	an,
4dd/	der
=10	=10
4cc#/	ſtim-
8b/	-me
8b/	mit
4cc#/}	ein
{4a	bei
=11	=11
4.ff#	die-
8ee	-ſer
4dd	Nei-
4cc#	-ge
=12	=12
4b/	Wein,
4b/	bei
4dd/}	die-
{4b/	-ſer
=13	=13
(4a	Rei-
4dd/)	.
(4cc#/	-ge
4ee/)	.
=14	=14
4dd	Wein.
!LO:TX:a:t=Alle.	!
4a	Juch-
4a	-he,
4a}	juch-
=15	=15
{2dd/	-he,
2ff#/	juch-
=16	=16
2dd/	-he!
4r}	.
==	==
!!!AGN: Trink - Lied
!!!GTL:Volkslieder
!!!ONB: ESAC (Essen Associative Code) Database: FINK
!!!AMT: simple quadruple
!!!AIN: vox
!!!EED: Helmut Schaffrath
!!!EEV: 1.0
!!Text: J. W. Goethe
!!@@COMMENT:"Aus Leipʒiger Liedertafel. Heft 1. Leipʒig, bei C. F. Peters. Stets mit beſonderer Erlaubniß der Herren 
!!Verleger, was ſich bei allen künftigen Angaben hier von ſelbſt verſteht."
!!@@END:
!!!source: Musikalischer Hausschatz der Deutschen. Eine Sammlung von über 1000 Liedern und Gesängen mit Singstimmen und Klavierbegleitung. Leipzig, Litterarisches Verlags-Haus.
!!!page: 26
!!!URL-scan: https://www.digitale-sammlungen.de/en/view/bsb11144622?page=34,35
!!!ENC: Anna Maria Matuszewska
!!!EEV: 2024/07/25
*-	*-
